img/our_clients/client_4.svg

<svg width="175" height="90" viewBox="0 0 175 90" fill="none" xmlns="http://www.w3.org/2000/svg">
<rect x="0.5" y="0.5" width="174" height="89" rx="3.5" stroke="#AFB1B8"/>
<path d="M59.7669 37.4309H59.7641C57.4353 37.4309 55.5474 39.1624 55.5474 41.2984V41.301C55.5474 43.4369 57.4353 45.1685 59.7641 45.1685H59.7669C62.0957 45.1685 63.9836 43.4369 63.9836 41.301V41.2984C63.9836 39.1624 62.0957 37.4309 59.7669 37.4309Z" fill="#AFB1B8"/>
<path d="M90.8909 36.1946C90.8843 33.2279 89.5967 30.3844 87.3097 28.2864C85.0228 26.1884 81.9228 25.0067 78.6882 25V25C75.4527 25.0054 72.3513 26.1865 70.0632 28.2846C67.775 30.3828 66.4866 33.2271 66.48 36.1946V52.5544C66.48 52.5544 90.8882 50.0611 90.8909 36.1972V36.1946Z" fill="#AFB1B8"/>
<path d="M47 57.924C47.0059 59.9882 47.9023 61.9664 49.4935 63.4263C51.0847 64.8862 53.2412 65.709 55.4919 65.7151C57.742 65.709 59.8981 64.8865 61.4892 63.4272C63.0803 61.9679 63.9771 59.9903 63.9837 57.9265V46.5432C63.9837 46.5432 47 48.2794 47 57.924ZM55.4919 59.9635C55.052 59.9635 54.6221 59.8439 54.2564 59.6198C53.8907 59.3957 53.6057 59.0772 53.4374 58.7045C53.2691 58.3318 53.2251 57.9217 53.3109 57.5261C53.3967 57.1304 53.6084 56.767 53.9194 56.4818C54.2304 56.1965 54.6267 56.0023 55.058 55.9236C55.4894 55.8449 55.9365 55.8853 56.3428 56.0397C56.7492 56.194 57.0965 56.4554 57.3408 56.7908C57.5852 57.1262 57.7156 57.5206 57.7156 57.924C57.7167 58.1924 57.66 58.4585 57.5487 58.7068C57.4374 58.9552 57.2738 59.1809 57.0672 59.3711C56.8606 59.5613 56.6151 59.7122 56.3448 59.8152C56.0744 59.9182 55.7846 59.9712 55.4919 59.9712V59.9635Z" fill="#AFB1B8"/>
<path d="M72.7405 58.8306H71.053V60.5737H70.1741V56.3081H72.9514V57.02H71.053V58.1216H72.7405V58.8306ZM76.9651 58.5376C76.9651 58.9575 76.8909 59.3257 76.7424 59.6421C76.594 59.9585 76.3811 60.2026 76.1038 60.3745C75.8284 60.5464 75.512 60.6323 75.1545 60.6323C74.801 60.6323 74.4856 60.5474 74.2083 60.3774C73.9309 60.2075 73.7161 59.9653 73.5637 59.6509C73.4114 59.3345 73.3342 58.9712 73.3323 58.561V58.3501C73.3323 57.9302 73.4075 57.561 73.5579 57.2427C73.7102 56.9224 73.9241 56.6772 74.1995 56.5073C74.4768 56.3354 74.7932 56.2495 75.1487 56.2495C75.5042 56.2495 75.8196 56.3354 76.095 56.5073C76.3723 56.6772 76.5862 56.9224 76.7366 57.2427C76.8889 57.561 76.9651 57.9292 76.9651 58.3472V58.5376ZM76.0745 58.3442C76.0745 57.897 75.9944 57.5571 75.8342 57.3247C75.6741 57.0923 75.4456 56.9761 75.1487 56.9761C74.8538 56.9761 74.6262 57.0913 74.4661 57.3218C74.3059 57.5503 74.2249 57.8862 74.2229 58.3296V58.5376C74.2229 58.9731 74.303 59.311 74.4631 59.5513C74.6233 59.7915 74.8538 59.9116 75.1545 59.9116C75.4495 59.9116 75.676 59.7964 75.8342 59.5659C75.9924 59.3335 76.0725 58.9956 76.0745 58.5522V58.3442ZM79.8157 59.4546C79.8157 59.2886 79.7571 59.1616 79.6399 59.0737C79.5227 58.9839 79.3118 58.8901 79.0071 58.7925C78.7024 58.6929 78.4612 58.5952 78.2834 58.4995C77.7991 58.2378 77.5569 57.8853 77.5569 57.4419C77.5569 57.2114 77.6213 57.0063 77.7502 56.8267C77.8811 56.645 78.0676 56.5034 78.3098 56.4019C78.554 56.3003 78.8274 56.2495 79.1301 56.2495C79.4348 56.2495 79.7063 56.3052 79.9446 56.4165C80.1829 56.5259 80.3674 56.6812 80.4983 56.8823C80.6311 57.0835 80.6975 57.312 80.6975 57.5679H79.8186C79.8186 57.3726 79.7571 57.2212 79.634 57.1138C79.511 57.0044 79.3381 56.9497 79.1155 56.9497C78.9006 56.9497 78.7336 56.9956 78.6145 57.0874C78.4954 57.1772 78.4358 57.2964 78.4358 57.4448C78.4358 57.5835 78.5051 57.6997 78.6438 57.7935C78.7844 57.8872 78.9905 57.9751 79.262 58.0571C79.762 58.2075 80.1262 58.394 80.3547 58.6167C80.5833 58.8394 80.6975 59.1167 80.6975 59.4487C80.6975 59.8179 80.5579 60.1079 80.2786 60.3188C79.9993 60.5278 79.6233 60.6323 79.1506 60.6323C78.8225 60.6323 78.5237 60.5728 78.2542 60.4536C77.9846 60.3325 77.7786 60.1675 77.636 59.9585C77.4954 59.7495 77.425 59.5073 77.425 59.2319H78.3069C78.3069 59.7026 78.5881 59.938 79.1506 59.938C79.3596 59.938 79.5227 59.896 79.6399 59.812C79.7571 59.7261 79.8157 59.6069 79.8157 59.4546ZM84.5061 57.02H83.1995V60.5737H82.3206V57.02H81.0315V56.3081H84.5061V57.02ZM87.5764 58.7251H85.8889V59.8677H87.8694V60.5737H85.01V56.3081H87.8635V57.02H85.8889V58.0366H87.5764V58.7251ZM89.9641 59.0122H89.2639V60.5737H88.385V56.3081H89.97C90.4739 56.3081 90.8625 56.4204 91.136 56.645C91.4094 56.8696 91.5461 57.187 91.5461 57.5972C91.5461 57.8882 91.4827 58.1313 91.3557 58.3267C91.2307 58.52 91.0403 58.6743 90.7844 58.7896L91.7073 60.5327V60.5737H90.7639L89.9641 59.0122ZM89.2639 58.3003H89.9729C90.1936 58.3003 90.3645 58.2446 90.4856 58.1333C90.6067 58.02 90.6672 57.8647 90.6672 57.6675C90.6672 57.4663 90.6096 57.3081 90.4944 57.1929C90.3811 57.0776 90.2063 57.02 89.97 57.02H89.2639V58.3003ZM94.5901 59.0708V60.5737H93.7112V56.3081H95.3752C95.6956 56.3081 95.9768 56.3667 96.219 56.4839C96.4631 56.6011 96.6506 56.7681 96.7815 56.9849C96.9124 57.1997 96.9778 57.4448 96.9778 57.7202C96.9778 58.1382 96.8342 58.4683 96.5471 58.7104C96.262 58.9507 95.8665 59.0708 95.3606 59.0708H94.5901ZM94.5901 58.3589H95.3752C95.6077 58.3589 95.7844 58.3042 95.9055 58.1948C96.0286 58.0854 96.0901 57.9292 96.0901 57.7261C96.0901 57.5171 96.0286 57.3481 95.9055 57.2192C95.7825 57.0903 95.6125 57.0239 95.3958 57.02H94.5901V58.3589ZM100.151 58.7251H98.4631V59.8677H100.444V60.5737H97.5842V56.3081H100.438V57.02H98.4631V58.0366H100.151V58.7251ZM104.229 57.02H102.922V60.5737H102.043V57.02H100.754V56.3081H104.229V57.02ZM107.299 58.7251H105.612V59.8677H107.592V60.5737H104.733V56.3081H107.586V57.02H105.612V58.0366H107.299V58.7251ZM109.687 59.0122H108.987V60.5737H108.108V56.3081H109.693C110.197 56.3081 110.585 56.4204 110.859 56.645C111.132 56.8696 111.269 57.187 111.269 57.5972C111.269 57.8882 111.205 58.1313 111.078 58.3267C110.953 58.52 110.763 58.6743 110.507 58.7896L111.43 60.5327V60.5737H110.487L109.687 59.0122ZM108.987 58.3003H109.696C109.916 58.3003 110.087 58.2446 110.208 58.1333C110.329 58.02 110.39 57.8647 110.39 57.6675C110.39 57.4663 110.332 57.3081 110.217 57.1929C110.104 57.0776 109.929 57.02 109.693 57.02H108.987V58.3003ZM114.152 59.4546C114.152 59.2886 114.093 59.1616 113.976 59.0737C113.859 58.9839 113.648 58.8901 113.343 58.7925C113.038 58.6929 112.797 58.5952 112.619 58.4995C112.135 58.2378 111.893 57.8853 111.893 57.4419C111.893 57.2114 111.957 57.0063 112.086 56.8267C112.217 56.645 112.404 56.5034 112.646 56.4019C112.89 56.3003 113.163 56.2495 113.466 56.2495C113.771 56.2495 114.042 56.3052 114.281 56.4165C114.519 56.5259 114.703 56.6812 114.834 56.8823C114.967 57.0835 115.033 57.312 115.033 57.5679H114.155C114.155 57.3726 114.093 57.2212 113.97 57.1138C113.847 57.0044 113.674 56.9497 113.451 56.9497C113.237 56.9497 113.07 56.9956 112.95 57.0874C112.831 57.1772 112.772 57.2964 112.772 57.4448C112.772 57.5835 112.841 57.6997 112.98 57.7935C113.12 57.8872 113.326 57.9751 113.598 58.0571C114.098 58.2075 114.462 58.394 114.691 58.6167C114.919 58.8394 115.033 59.1167 115.033 59.4487C115.033 59.8179 114.894 60.1079 114.615 60.3188C114.335 60.5278 113.959 60.6323 113.487 60.6323C113.158 60.6323 112.86 60.5728 112.59 60.4536C112.321 60.3325 112.115 60.1675 111.972 59.9585C111.831 59.7495 111.761 59.5073 111.761 59.2319H112.643C112.643 59.7026 112.924 59.938 113.487 59.938C113.696 59.938 113.859 59.896 113.976 59.812C114.093 59.7261 114.152 59.6069 114.152 59.4546Z" fill="#AFB1B8"/>
</svg>

<svg width="175" height="90" fill="none" xmlns="http://www.w3.org/2000/svg"><rect x=".5" y=".5" width="174" height="89" rx="3.5" stroke="#AFB1B8"/><path d="M59.767 37.43h-.003c-2.329 0-4.217 1.732-4.217 3.868v.003c0 2.136 1.888 3.867 4.217 3.867h.003c2.329 0 4.217-1.731 4.217-3.867v-.003c0-2.136-1.888-3.867-4.217-3.867zM90.89 36.195c-.006-2.967-1.293-5.81-3.58-7.909-2.287-2.098-5.387-3.28-8.622-3.286-3.235.005-6.337 1.186-8.625 3.285-2.288 2.098-3.576 4.942-3.583 7.91v16.36s24.408-2.494 24.41-16.358v-.002zM47 57.924c.006 2.064.902 4.042 2.493 5.502 1.592 1.46 3.748 2.283 5.999 2.29 2.25-.007 4.406-.83 5.997-2.289 1.591-1.46 2.488-3.437 2.495-5.5V46.542S47 48.28 47 57.924zm8.492 2.04c-.44 0-.87-.12-1.236-.344a2.088 2.088 0 01-.819-.915 1.883 1.883 0 01-.126-1.179c.086-.396.297-.759.608-1.044.311-.285.708-.48 1.139-.558a2.41 2.41 0 011.285.116c.406.154.753.415.998.75.244.336.375.73.375 1.134 0 .268-.056.535-.167.783a2.036 2.036 0 01-.482.664c-.206.19-.452.341-.722.444-.27.103-.56.156-.853.156v-.007zM72.74 58.83h-1.687v1.744h-.879v-4.266h2.777v.712h-1.898v1.102h1.688v.709zm4.225-.292c0 .42-.074.788-.223 1.104-.148.316-.36.56-.638.732a1.755 1.755 0 01-.95.258c-.353 0-.668-.085-.946-.255a1.695 1.695 0 01-.644-.726 2.511 2.511 0 01-.232-1.09v-.21c0-.42.076-.79.226-1.108.152-.32.366-.566.641-.736.278-.172.594-.258.95-.258.355 0 .67.086.946.258.277.17.491.415.642.736.152.318.228.686.228 1.104v.19zm-.89-.194c0-.447-.08-.787-.24-1.02a.783.783 0 00-.686-.348.782.782 0 00-.683.346c-.16.228-.241.564-.243 1.008v.208c0 .435.08.773.24 1.013.16.24.39.36.692.36a.775.775 0 00.68-.345c.157-.233.238-.57.24-1.014v-.208zm3.74 1.11a.447.447 0 00-.175-.38c-.117-.09-.328-.184-.633-.282a4.565 4.565 0 01-.724-.293c-.484-.261-.726-.614-.726-1.057 0-.23.064-.436.193-.615.131-.182.318-.324.56-.425.244-.102.517-.153.82-.153.305 0 .576.056.815.167.238.11.422.265.553.466.133.202.2.43.2.686h-.88c0-.195-.06-.347-.184-.454-.123-.11-.296-.164-.519-.164-.214 0-.381.046-.5.137a.426.426 0 00-.18.358c0 .139.07.255.209.349.14.093.346.181.618.263.5.15.864.337 1.093.56.228.222.343.5.343.832 0 .369-.14.659-.42.87-.279.209-.655.313-1.127.313-.328 0-.627-.06-.897-.178a1.438 1.438 0 01-.618-.495 1.27 1.27 0 01-.211-.727h.882c0 .47.281.706.844.706.209 0 .372-.042.489-.126a.418.418 0 00.176-.357zm4.691-2.434H83.2v3.554h-.88V57.02h-1.288v-.712h3.474v.712zm3.07 1.705H85.89v1.143h1.98v.706H85.01v-4.266h2.853v.712H85.89v1.017h1.687v.688zm2.388.287h-.7v1.562h-.879v-4.266h1.585c.504 0 .892.112 1.166.337.273.225.41.542.41.952 0 .291-.063.534-.19.73a1.284 1.284 0 01-.572.463l.923 1.743v.04h-.943l-.8-1.56zm-.7-.712h.709c.22 0 .392-.055.513-.167a.607.607 0 00.181-.466c0-.2-.057-.359-.173-.474-.113-.115-.288-.173-.524-.173h-.706v1.28zm5.326.77v1.504h-.879v-4.266h1.664c.32 0 .602.059.844.176.244.117.432.284.563.5.13.216.196.46.196.736 0 .418-.144.748-.43.99-.286.24-.681.36-1.187.36h-.77zm0-.711h.785c.233 0 .41-.055.53-.164.124-.11.185-.266.185-.469a.704.704 0 00-.184-.507c-.124-.129-.294-.195-.51-.199h-.806v1.339zm5.561.366h-1.688v1.143h1.981v.706h-2.86v-4.266h2.854v.712h-1.975v1.017h1.688v.688zm4.078-1.705h-1.307v3.554h-.879V57.02h-1.289v-.712h3.475v.712zm3.07 1.705h-1.687v1.143h1.98v.706h-2.859v-4.266h2.853v.712h-1.974v1.017h1.687v.688zm2.388.287h-.7v1.562h-.879v-4.266h1.585c.504 0 .892.112 1.166.337.273.225.41.542.41.952 0 .291-.064.534-.191.73a1.282 1.282 0 01-.571.463l.923 1.743v.04h-.943l-.8-1.56zm-.7-.712h.709c.22 0 .391-.055.512-.167a.607.607 0 00.182-.466c0-.2-.058-.359-.173-.474-.113-.115-.288-.173-.524-.173h-.706v1.28zm5.165 1.155a.448.448 0 00-.176-.381c-.117-.09-.328-.184-.633-.282a4.566 4.566 0 01-.724-.293c-.484-.261-.726-.614-.726-1.057 0-.23.064-.436.193-.615a1.28 1.28 0 01.56-.425c.244-.102.517-.153.82-.153.305 0 .576.056.815.167.238.11.422.265.553.466.133.202.199.43.199.686h-.878c0-.195-.062-.347-.185-.454-.123-.11-.296-.164-.519-.164-.214 0-.381.046-.501.137a.425.425 0 00-.178.358c0 .139.069.255.208.349.14.093.346.181.618.263.5.15.864.337 1.093.56.228.222.342.5.342.832 0 .369-.139.659-.418.87-.28.209-.656.313-1.128.313-.329 0-.627-.06-.897-.178a1.444 1.444 0 01-.618-.495 1.268 1.268 0 01-.211-.727h.882c0 .47.281.706.844.706.209 0 .372-.042.489-.126a.419.419 0 00.176-.357z" fill="#AFB1B8"/></svg>
